Numix/64/apps/icq.svg

<?xml version="1.0" encoding="UTF-8" standalone="yes"?>
<svg xmlns="http://www.w3.org/2000/svg" xmlns:xlink="http://www.w3.org/1999/xlink" width="64px" height="64px" viewBox="0 0 48 48" version="1.1">
  <g id="surface1">
    <path style=" stroke:none;fill-rule:nonzero;fill:rgb(16.078431%,16.078431%,16.078431%);fill-opacity:1;" d="M 19.003906 6.660156 C 17.867188 6.402344 16.9375 6.503906 15.953125 7.023438 C 14.867188 7.695312 14.246094 8.730469 13.988281 10.175781 C 13.730469 11.675781 13.988281 13.125 14.765625 14.574219 L 15.125 15.089844 L 13.886719 14.675781 C 12.335938 14.3125 10.886719 14.519531 9.4375 15.296875 C 7.9375 16.070312 7.007812 17.15625 6.386719 18.660156 C 5.816406 20.105469 5.871094 21.503906 6.59375 22.796875 C 6.902344 23.363281 7.367188 23.828125 7.78125 24.140625 C 8.402344 24.761719 9.179688 25.121094 10.109375 25.277344 L 10.472656 25.382812 L 9.695312 26.054688 C 8.972656 26.675781 8.558594 27.449219 8.300781 28.226562 C 8.039062 29.15625 8.144531 30.085938 8.660156 30.964844 C 8.921875 31.378906 9.179688 31.742188 9.59375 32 C 10.007812 32.363281 10.523438 32.621094 11.144531 32.671875 C 12.28125 32.929688 13.472656 32.929688 14.765625 32.515625 L 13.832031 34.070312 L 13.574219 34.742188 C 13.058594 36.394531 13.210938 37.84375 13.988281 39.34375 C 14.351562 39.914062 14.765625 40.429688 15.175781 40.894531 C 15.796875 41.464844 16.574219 41.828125 17.503906 42.085938 C 19.054688 42.5 20.609375 42.445312 22.109375 41.671875 C 23.554688 40.894531 24.488281 39.652344 24.953125 38.101562 L 25.003906 37.792969 C 25.988281 38.878906 26.917969 39.601562 27.953125 39.859375 C 28.984375 40.171875 30.019531 40.121094 30.953125 39.5 C 31.832031 38.980469 32.453125 38.101562 32.761719 37.015625 C 33.019531 35.878906 33.019531 34.742188 32.761719 33.449219 C 33.277344 33.808594 33.796875 34.066406 34.417969 34.222656 C 36.070312 34.742188 37.519531 34.6875 38.96875 33.914062 C 40.363281 33.136719 41.296875 31.894531 41.761719 30.292969 C 42.175781 28.742188 42.070312 27.242188 41.296875 25.792969 L 41.035156 25.378906 C 40.621094 24.757812 40.210938 24.136719 39.589844 23.726562 C 39.070312 23.363281 38.453125 23.105469 37.882812 22.84375 C 39.484375 22.070312 40.625 20.984375 41.140625 19.585938 C 41.503906 18.449219 41.398438 17.519531 40.882812 16.585938 L 40.882812 16.484375 C 40.261719 15.449219 39.433594 14.777344 38.140625 14.414062 C 37.367188 14.261719 36.484375 14.261719 35.710938 14.3125 L 34.003906 14.675781 L 34.574219 13.382812 C 35.089844 11.726562 34.933594 10.121094 34.054688 8.625 L 33.902344 8.363281 C 33.125 7.070312 31.988281 6.296875 30.4375 5.882812 C 28.832031 5.46875 27.332031 5.625 25.882812 6.398438 C 24.4375 7.175781 23.402344 8.363281 22.9375 9.917969 L 22.9375 10.019531 L 22.886719 10.382812 L 22.679688 10.019531 L 22.160156 9.089844 C 21.332031 7.796875 20.296875 7.023438 19.003906 6.660156 Z M 32.195312 9.761719 C 32.453125 10.28125 32.609375 10.898438 32.609375 11.574219 L 32.453125 12.710938 C 32.246094 13.28125 31.988281 13.796875 31.675781 14.261719 L 27.023438 19.953125 C 26.554688 19.589844 26.039062 19.332031 25.523438 19.070312 L 25.003906 13.226562 L 24.953125 11.160156 L 25.003906 10.644531 C 25.265625 9.609375 25.988281 8.832031 26.917969 8.316406 C 27.847656 7.796875 28.882812 7.695312 29.867188 8.058594 C 30.953125 8.316406 31.726562 8.882812 32.195312 9.761719 Z M 16.160156 10.796875 C 16.210938 9.867188 16.574219 9.246094 17.195312 8.882812 C 17.503906 8.625 17.972656 8.625 18.382812 8.832031 C 19.316406 9.089844 20.089844 9.761719 20.710938 11.054688 C 20.96875 11.574219 21.230469 12.089844 21.332031 12.710938 L 22.367188 18.8125 L 21.589844 19.074219 L 16.988281 14.054688 L 16.730469 13.539062 C 16.316406 12.605469 16.058594 11.730469 16.160156 10.796875 Z M 13.367188 16.847656 L 14.765625 17.417969 L 19.316406 20.726562 C 18.902344 21.246094 18.644531 21.761719 18.488281 22.277344 L 11.042969 23.210938 L 10.523438 23.105469 C 9.59375 22.953125 8.972656 22.539062 8.558594 21.761719 C 8.144531 20.984375 8.144531 20.210938 8.457031 19.433594 C 8.816406 18.453125 9.488281 17.675781 10.472656 17.261719 C 11.402344 16.746094 12.332031 16.589844 13.367188 16.847656 Z M 18.28125 25.277344 L 18.644531 26.3125 L 18.796875 26.675781 C 18.023438 27.347656 17.453125 27.96875 16.832031 28.535156 L 15.28125 29.828125 L 14.867188 30.089844 C 13.886719 30.554688 13.058594 30.710938 12.179688 30.605469 C 11.402344 30.554688 10.78125 30.292969 10.523438 29.828125 L 10.367188 29.261719 L 10.472656 28.796875 C 10.730469 28.019531 11.402344 27.246094 12.59375 26.675781 C 13.210938 26.417969 13.730469 26.15625 14.144531 26.054688 Z M 34.417969 16.898438 C 35.347656 16.484375 36.226562 16.382812 37.160156 16.484375 C 38.039062 16.589844 38.660156 17.003906 38.96875 17.625 L 39.175781 18.296875 L 39.070312 18.8125 C 38.710938 19.742188 37.933594 20.46875 36.640625 21.035156 C 36.125 21.296875 35.554688 21.398438 34.933594 21.5 L 28.574219 22.277344 L 28.46875 21.914062 L 28.367188 21.761719 L 28.574219 21.503906 L 33.796875 17.15625 Z M 21.230469 21.8125 C 21.851562 21.246094 22.675781 20.882812 23.660156 20.882812 C 24.589844 20.882812 25.46875 21.246094 26.039062 21.8125 C 26.761719 22.539062 27.074219 23.3125 27.074219 24.242188 C 27.074219 25.175781 26.761719 26.054688 26.039062 26.675781 C 25.367188 27.347656 24.589844 27.707031 23.660156 27.707031 C 22.675781 27.707031 21.851562 27.347656 21.230469 26.675781 C 20.558594 26.054688 20.195312 25.175781 20.195312 24.242188 C 20.195312 23.3125 20.558594 22.539062 21.230469 21.8125 Z M 22.417969 29.3125 C 22.523438 31.070312 22.675781 32.933594 22.9375 34.949219 L 22.9375 37.019531 L 22.882812 37.535156 C 22.523438 38.464844 21.902344 39.242188 20.972656 39.65625 C 20.039062 40.171875 19.058594 40.277344 18.125 40.019531 C 17.09375 39.761719 16.316406 39.140625 15.902344 38.3125 C 15.644531 37.796875 15.4375 37.175781 15.4375 36.554688 L 15.695312 35.363281 C 15.800781 34.847656 16.058594 34.328125 16.472656 33.917969 L 20.816406 28.742188 C 21.332031 29.003906 21.851562 29.261719 22.417969 29.3125 Z M 26.402344 28.640625 L 28.574219 30.863281 L 29.917969 32.519531 L 30.175781 33.035156 C 30.640625 33.914062 30.902344 34.742188 30.796875 35.726562 C 30.695312 36.65625 30.382812 37.328125 29.761719 37.585938 C 29.402344 37.847656 28.988281 37.847656 28.574219 37.792969 C 27.589844 37.535156 26.816406 36.761719 26.246094 35.519531 L 25.625 33.8125 L 24.851562 29.3125 L 25.730469 29.003906 Z M 28.730469 25.433594 L 34.574219 24.917969 L 36.640625 24.863281 L 37.160156 24.917969 C 37.933594 25.175781 38.660156 25.640625 39.074219 26.417969 C 39.589844 26.984375 39.847656 27.761719 39.847656 28.640625 L 39.691406 29.675781 C 39.433594 30.710938 38.8125 31.484375 37.933594 31.898438 C 37.003906 32.414062 36.074219 32.519531 35.039062 32.15625 C 34.417969 32 34.003906 31.742188 33.640625 31.328125 L 28.210938 26.828125 L 28.574219 26.054688 Z M 28.730469 25.433594 "/>
    <path style=" stroke:none;fill-rule:nonzero;fill:rgb(45.098039%,85.882353%,27.843137%);fill-opacity:1;" d="M 32.195312 9.761719 C 32.453125 10.28125 32.609375 10.898438 32.609375 11.574219 L 32.453125 12.710938 C 32.246094 13.28125 31.988281 13.796875 31.675781 14.261719 L 27.023438 19.953125 C 26.554688 19.589844 26.039062 19.332031 25.523438 19.070312 L 25.003906 13.226562 L 24.953125 11.160156 L 25.003906 10.644531 C 25.265625 9.609375 25.988281 8.832031 26.917969 8.316406 C 27.847656 7.796875 28.882812 7.695312 29.867188 8.058594 C 30.953125 8.316406 31.726562 8.882812 32.195312 9.761719 Z M 16.160156 10.796875 C 16.210938 9.867188 16.574219 9.246094 17.195312 8.882812 C 17.503906 8.625 17.972656 8.625 18.382812 8.832031 C 19.316406 9.089844 20.089844 9.761719 20.710938 11.054688 C 20.96875 11.574219 21.230469 12.089844 21.332031 12.710938 L 22.367188 18.8125 L 21.589844 19.074219 L 16.988281 14.054688 L 16.730469 13.539062 C 16.316406 12.605469 16.058594 11.730469 16.160156 10.796875 Z M 13.367188 16.847656 L 14.765625 17.417969 L 19.316406 20.726562 C 18.902344 21.246094 18.644531 21.761719 18.488281 22.277344 L 11.042969 23.210938 L 10.523438 23.105469 C 9.59375 22.953125 8.972656 22.539062 8.558594 21.761719 C 8.144531 20.984375 8.144531 20.210938 8.457031 19.433594 C 8.816406 18.453125 9.488281 17.675781 10.472656 17.261719 C 11.402344 16.746094 12.332031 16.589844 13.367188 16.847656 Z M 34.417969 16.898438 C 35.347656 16.484375 36.226562 16.382812 37.160156 16.484375 C 38.039062 16.589844 38.660156 17.003906 38.96875 17.625 L 39.175781 18.296875 L 39.070312 18.8125 C 38.710938 19.742188 37.933594 20.46875 36.640625 21.035156 C 36.125 21.296875 35.554688 21.398438 34.933594 21.5 L 28.574219 22.277344 L 28.46875 21.914062 L 28.367188 21.761719 L 28.574219 21.503906 L 33.796875 17.15625 Z M 22.417969 29.3125 C 22.523438 31.070312 22.675781 32.933594 22.9375 34.949219 L 22.9375 37.019531 L 22.882812 37.535156 C 22.523438 38.464844 21.902344 39.242188 20.972656 39.65625 C 20.039062 40.171875 19.058594 40.277344 18.125 40.019531 C 17.09375 39.761719 16.316406 39.140625 15.902344 38.3125 C 15.644531 37.796875 15.4375 37.175781 15.4375 36.554688 L 15.695312 35.363281 C 15.800781 34.847656 16.058594 34.328125 16.472656 33.917969 L 20.816406 28.742188 C 21.332031 29.003906 21.851562 29.261719 22.417969 29.3125 Z M 26.402344 28.640625 L 28.574219 30.863281 L 29.917969 32.519531 L 30.175781 33.035156 C 30.640625 33.914062 30.902344 34.742188 30.796875 35.726562 C 30.695312 36.65625 30.382812 37.328125 29.761719 37.585938 C 29.402344 37.847656 28.988281 37.847656 28.574219 37.792969 C 27.589844 37.535156 26.816406 36.761719 26.246094 35.519531 L 25.625 33.8125 L 24.851562 29.3125 L 25.730469 29.003906 Z M 28.730469 25.433594 L 34.574219 24.917969 L 36.640625 24.863281 L 37.160156 24.917969 C 37.933594 25.175781 38.660156 25.640625 39.074219 26.417969 C 39.589844 26.984375 39.847656 27.761719 39.847656 28.640625 L 39.691406 29.675781 C 39.433594 30.710938 38.8125 31.484375 37.933594 31.898438 C 37.003906 32.414062 36.074219 32.519531 35.039062 32.15625 C 34.417969 32 34.003906 31.742188 33.640625 31.328125 L 28.210938 26.828125 L 28.574219 26.054688 Z M 28.730469 25.433594 "/>
    <path style=" stroke:none;fill-rule:nonzero;fill:rgb(94.117647%,23.529412%,30.588235%);fill-opacity:1;" d="M 18.28125 25.277344 L 18.644531 26.3125 L 18.796875 26.675781 C 18.023438 27.347656 17.453125 27.96875 16.832031 28.535156 L 15.28125 29.828125 L 14.867188 30.089844 C 13.886719 30.554688 13.058594 30.710938 12.179688 30.605469 C 11.402344 30.554688 10.78125 30.292969 10.523438 29.828125 L 10.367188 29.261719 L 10.472656 28.796875 C 10.730469 28.019531 11.402344 27.246094 12.59375 26.675781 C 13.210938 26.417969 13.730469 26.15625 14.144531 26.054688 Z M 18.28125 25.277344 "/>
    <path style=" stroke:none;fill-rule:nonzero;fill:rgb(100%,99.215686%,34.901961%);fill-opacity:1;" d="M 21.230469 21.8125 C 21.851562 21.246094 22.675781 20.882812 23.660156 20.882812 C 24.589844 20.882812 25.46875 21.246094 26.039062 21.8125 C 26.761719 22.539062 27.074219 23.3125 27.074219 24.242188 C 27.074219 25.175781 26.761719 26.054688 26.039062 26.675781 C 25.367188 27.347656 24.589844 27.707031 23.660156 27.707031 C 22.675781 27.707031 21.851562 27.347656 21.230469 26.675781 C 20.558594 26.054688 20.195312 25.175781 20.195312 24.242188 C 20.195312 23.3125 20.558594 22.539062 21.230469 21.8125 Z M 21.230469 21.8125 "/>
  </g>
</svg>

<svg xmlns="http://www.w3.org/2000/svg" width="64" height="64" viewBox="0 0 48 48">
 <g>
  <path d="m 19 6.66 c -1.137 -0.258 -2.066 -0.156 -3.051 0.363 c -1.086 0.672 -1.707 1.707 -1.965 3.152 c -0.258 1.5 0 2.949 0.777 4.398 l 0.359 0.516 l -1.238 -0.414 c -1.551 -0.363 -3 -0.156 -4.449 0.621 c -1.5 0.773 -2.43 1.859 -3.051 3.363 c -0.57 1.445 -0.516 2.844 0.207 4.137 c 0.309 0.566 0.773 1.031 1.188 1.344 c 0.621 0.621 1.398 0.98 2.328 1.137 l 0.363 0.105 l -0.777 0.672 c -0.723 0.621 -1.137 1.395 -1.395 2.172 c -0.262 0.93 -0.156 1.859 0.359 2.738 c 0.262 0.414 0.52 0.777 0.934 1.035 c 0.414 0.363 0.93 0.621 1.551 0.672 c 1.137 0.258 2.328 0.258 3.621 -0.156 l -0.934 1.555 l -0.258 0.672 c -0.516 1.652 -0.363 3.102 0.414 4.602 c 0.363 0.57 0.777 1.086 1.188 1.551 c 0.621 0.57 1.398 0.934 2.328 1.191 c 1.551 0.414 3.105 0.359 4.605 -0.414 c 1.445 -0.777 2.379 -2.02 2.844 -3.57 l 0.051 -0.309 c 0.984 1.086 1.914 1.809 2.949 2.066 c 1.031 0.313 2.066 0.262 3 -0.359 c 0.879 -0.52 1.5 -1.398 1.809 -2.484 c 0.258 -1.137 0.258 -2.273 0 -3.566 c 0.516 0.359 1.035 0.617 1.656 0.773 c 1.652 0.52 3.102 0.465 4.551 -0.309 c 1.395 -0.777 2.328 -2.02 2.793 -3.621 c 0.414 -1.551 0.309 -3.051 -0.465 -4.5 l -0.262 -0.414 c -0.414 -0.621 -0.824 -1.242 -1.445 -1.652 c -0.52 -0.363 -1.137 -0.621 -1.707 -0.883 c 1.602 -0.773 2.742 -1.859 3.258 -3.258 c 0.363 -1.137 0.258 -2.066 -0.258 -3 l 0 -0.102 c -0.621 -1.035 -1.449 -1.707 -2.742 -2.07 c -0.773 -0.152 -1.656 -0.152 -2.43 -0.102 l -1.707 0.363 l 0.57 -1.293 c 0.516 -1.656 0.359 -3.262 -0.52 -4.758 l -0.152 -0.262 c -0.777 -1.293 -1.914 -2.066 -3.465 -2.48 c -1.605 -0.414 -3.105 -0.258 -4.555 0.516 c -1.445 0.777 -2.48 1.965 -2.945 3.52 l 0 0.102 l -0.051 0.363 l -0.207 -0.363 l -0.52 -0.93 c -0.828 -1.293 -1.863 -2.066 -3.156 -2.43 m 13.191 3.102 c 0.258 0.52 0.414 1.137 0.414 1.813 l -0.156 1.137 c -0.207 0.57 -0.465 1.086 -0.777 1.551 l -4.652 5.691 c -0.469 -0.363 -0.984 -0.621 -1.5 -0.883 l -0.52 -5.844 l -0.051 -2.066 l 0.051 -0.516 c 0.262 -1.035 0.984 -1.813 1.914 -2.328 c 0.93 -0.52 1.965 -0.621 2.949 -0.258 c 1.086 0.258 1.859 0.824 2.328 1.703 m -16.04 1.035 c 0.051 -0.93 0.414 -1.551 1.035 -1.914 c 0.309 -0.258 0.777 -0.258 1.188 -0.051 c 0.934 0.258 1.707 0.93 2.328 2.223 c 0.258 0.52 0.52 1.035 0.621 1.656 l 1.035 6.102 l -0.777 0.262 l -4.602 -5.02 l -0.258 -0.516 c -0.414 -0.934 -0.672 -1.809 -0.57 -2.742 m -2.793 6.05 l 1.398 0.57 l 4.551 3.309 c -0.414 0.52 -0.672 1.035 -0.828 1.551 l -7.445 0.934 l -0.52 -0.105 c -0.93 -0.152 -1.551 -0.566 -1.965 -1.344 c -0.414 -0.777 -0.414 -1.551 -0.102 -2.328 c 0.359 -0.98 1.031 -1.758 2.02 -2.172 c 0.93 -0.516 1.859 -0.672 2.895 -0.414 m 4.914 8.43 l 0.363 1.035 l 0.152 0.363 c -0.773 0.672 -1.344 1.293 -1.965 1.859 l -1.551 1.293 l -0.414 0.262 c -0.98 0.465 -1.809 0.621 -2.688 0.516 c -0.777 -0.051 -1.398 -0.313 -1.656 -0.777 l -0.156 -0.566 l 0.105 -0.465 c 0.258 -0.777 0.93 -1.551 2.121 -2.121 c 0.617 -0.258 1.137 -0.52 1.551 -0.621 m 20.273 -9.156 c 0.93 -0.414 1.809 -0.516 2.742 -0.414 c 0.879 0.105 1.5 0.52 1.809 1.141 l 0.207 0.672 l -0.105 0.516 c -0.359 0.93 -1.137 1.656 -2.43 2.223 c -0.516 0.262 -1.086 0.363 -1.707 0.465 l -6.359 0.777 l -0.105 -0.363 l -0.102 -0.152 l 0.207 -0.258 l 5.223 -4.348 m -12.566 4.656 c 0.621 -0.566 1.445 -0.93 2.43 -0.93 c 0.93 0 1.809 0.363 2.379 0.93 c 0.723 0.727 1.035 1.5 1.035 2.43 c 0 0.934 -0.313 1.813 -1.035 2.434 c -0.672 0.672 -1.449 1.031 -2.379 1.031 c -0.984 0 -1.809 -0.359 -2.43 -1.031 c -0.672 -0.621 -1.035 -1.5 -1.035 -2.434 c 0 -0.93 0.363 -1.703 1.035 -2.43 m 1.188 7.5 c 0.105 1.758 0.258 3.621 0.52 5.637 l 0 2.07 l -0.055 0.516 c -0.359 0.93 -0.98 1.707 -1.91 2.121 c -0.934 0.516 -1.914 0.621 -2.848 0.363 c -1.031 -0.258 -1.809 -0.879 -2.223 -1.707 c -0.258 -0.516 -0.465 -1.137 -0.465 -1.758 l 0.258 -1.191 c 0.105 -0.516 0.363 -1.035 0.777 -1.445 l 4.344 -5.176 c 0.516 0.262 1.035 0.52 1.602 0.57 m 3.984 -0.672 l 2.172 2.223 l 1.344 1.656 l 0.258 0.516 c 0.465 0.879 0.727 1.707 0.621 2.691 c -0.102 0.93 -0.414 1.602 -1.035 1.859 c -0.359 0.262 -0.773 0.262 -1.188 0.207 c -0.984 -0.258 -1.758 -1.031 -2.328 -2.273 l -0.621 -1.707 l -0.773 -4.5 l 0.879 -0.309 m 3 -3.57 l 5.844 -0.516 l 2.066 -0.055 l 0.52 0.055 c 0.773 0.258 1.5 0.723 1.914 1.5 c 0.516 0.566 0.773 1.344 0.773 2.223 l -0.156 1.035 c -0.258 1.035 -0.879 1.809 -1.758 2.223 c -0.93 0.516 -1.859 0.621 -2.895 0.258 c -0.621 -0.156 -1.035 -0.414 -1.398 -0.828 l -5.43 -4.5 l 0.363 -0.773 m 0.156 -0.621" style="fill:#282828;fill-opacity:1;stroke:none;fill-rule:nonzero"/>
  <path d="m 32.2 9.762 c 0.258 0.52 0.414 1.137 0.414 1.813 l -0.156 1.137 c -0.207 0.57 -0.465 1.086 -0.777 1.551 l -4.652 5.691 c -0.469 -0.363 -0.984 -0.621 -1.5 -0.883 l -0.52 -5.844 l -0.051 -2.066 l 0.051 -0.516 c 0.262 -1.035 0.984 -1.813 1.914 -2.328 c 0.93 -0.52 1.965 -0.621 2.949 -0.258 c 1.086 0.258 1.859 0.824 2.328 1.703 m -16.04 1.035 c 0.051 -0.93 0.414 -1.551 1.035 -1.914 c 0.309 -0.258 0.777 -0.258 1.188 -0.051 c 0.934 0.258 1.707 0.93 2.328 2.223 c 0.258 0.52 0.52 1.035 0.621 1.656 l 1.035 6.102 l -0.777 0.262 l -4.602 -5.02 l -0.258 -0.516 c -0.414 -0.934 -0.672 -1.809 -0.57 -2.742 m -2.793 6.05 l 1.398 0.57 l 4.551 3.309 c -0.414 0.52 -0.672 1.035 -0.828 1.551 l -7.445 0.934 l -0.52 -0.105 c -0.93 -0.152 -1.551 -0.566 -1.965 -1.344 c -0.414 -0.777 -0.414 -1.551 -0.102 -2.328 c 0.359 -0.98 1.031 -1.758 2.02 -2.172 c 0.93 -0.516 1.859 -0.672 2.895 -0.414 m 21.05 0.051 c 0.93 -0.414 1.809 -0.516 2.742 -0.414 c 0.879 0.105 1.5 0.52 1.809 1.141 l 0.207 0.672 l -0.105 0.516 c -0.359 0.93 -1.137 1.656 -2.43 2.223 c -0.516 0.262 -1.086 0.363 -1.707 0.465 l -6.359 0.777 l -0.105 -0.363 l -0.102 -0.152 l 0.207 -0.258 l 5.223 -4.348 m -11.379 12.156 c 0.105 1.758 0.258 3.621 0.52 5.637 l 0 2.07 l -0.055 0.516 c -0.359 0.93 -0.98 1.707 -1.91 2.121 c -0.934 0.516 -1.914 0.621 -2.848 0.363 c -1.031 -0.258 -1.809 -0.879 -2.223 -1.707 c -0.258 -0.516 -0.465 -1.137 -0.465 -1.758 l 0.258 -1.191 c 0.105 -0.516 0.363 -1.035 0.777 -1.445 l 4.344 -5.176 c 0.516 0.262 1.035 0.52 1.602 0.57 m 3.984 -0.672 l 2.172 2.223 l 1.344 1.656 l 0.258 0.516 c 0.465 0.879 0.727 1.707 0.621 2.691 c -0.102 0.93 -0.414 1.602 -1.035 1.859 c -0.359 0.262 -0.773 0.262 -1.188 0.207 c -0.984 -0.258 -1.758 -1.031 -2.328 -2.273 l -0.621 -1.707 l -0.773 -4.5 l 0.879 -0.309 m 3 -3.57 l 5.844 -0.516 l 2.066 -0.055 l 0.52 0.055 c 0.773 0.258 1.5 0.723 1.914 1.5 c 0.516 0.566 0.773 1.344 0.773 2.223 l -0.156 1.035 c -0.258 1.035 -0.879 1.809 -1.758 2.223 c -0.93 0.516 -1.859 0.621 -2.895 0.258 c -0.621 -0.156 -1.035 -0.414 -1.398 -0.828 l -5.43 -4.5 l 0.363 -0.773 m 0.156 -0.621" style="fill:#72db46;fill-opacity:1;stroke:none;fill-rule:nonzero"/>
  <path d="m 18.281 25.277 l 0.363 1.035 l 0.152 0.363 c -0.773 0.672 -1.344 1.293 -1.965 1.859 l -1.551 1.293 l -0.414 0.262 c -0.98 0.465 -1.809 0.621 -2.688 0.516 c -0.777 -0.051 -1.398 -0.313 -1.656 -0.777 l -0.156 -0.566 l 0.105 -0.465 c 0.258 -0.777 0.93 -1.551 2.121 -2.121 c 0.617 -0.258 1.137 -0.52 1.551 -0.621 m 4.137 -0.777" style="fill:#ef3c4d;fill-opacity:1;stroke:none;fill-rule:nonzero"/>
  <path d="m 21.23 21.813 c 0.621 -0.566 1.445 -0.93 2.43 -0.93 c 0.93 0 1.809 0.363 2.379 0.93 c 0.723 0.727 1.035 1.5 1.035 2.43 c 0 0.934 -0.313 1.813 -1.035 2.434 c -0.672 0.672 -1.449 1.031 -2.379 1.031 c -0.984 0 -1.809 -0.359 -2.43 -1.031 c -0.672 -0.621 -1.035 -1.5 -1.035 -2.434 c 0 -0.93 0.363 -1.703 1.035 -2.43 m 0 0" style="fill:#fffc59;fill-opacity:1;stroke:none;fill-rule:nonzero"/>
 </g>
</svg>
